src/16/actions/distribute-horizontal-center.svg

<svg xmlns="http://www.w3.org/2000/svg" viewBox="0 0 16 16"><path d="M7 2L4 4l3 2V2zm2 0v4l3-2-3-2zM4 6v1H2v6h2v1h1v-1h2V7H5V6H4zm7 0v1H9v6h2v1h1v-1h2V7h-2V6h-1zM3 8h3v4H3V8zm7 0h3v4h-3V8z" fill="currentColor" color="#5d656b"/></svg>

<svg xmlns="http://www.w3.org/2000/svg" viewBox="0 0 16 16">
  <defs id="defs3051">
    <style type="text/css" id="current-color-scheme">
      .ColorScheme-Text {
        color:#5d656b;
      }
      </style>
  </defs>
 <path style="fill:currentColor;fill-opacity:1;stroke:none" 
     d="M 7 2 L 4 4 L 7 6 L 7 2 z M 9 2 L 9 6 L 12 4 L 9 2 z M 4 6 L 4 7 L 2 7 L 2 13 L 4 13 L 4 14 L 5 14 L 5 13 L 7 13 L 7 7 L 5 7 L 5 6 L 4 6 z M 11 6 L 11 7 L 9 7 L 9 13 L 11 13 L 11 14 L 12 14 L 12 13 L 14 13 L 14 7 L 12 7 L 12 6 L 11 6 z M 3 8 L 6 8 L 6 12 L 3 12 L 3 8 z M 10 8 L 13 8 L 13 12 L 10 12 L 10 8 z "
     class="ColorScheme-Text"
     />
</svg>
